findly-builder/apps/searchassist/src/assets/icons/elipse-black.svg

<svg width="2" height="10" viewBox="0 0 2 10" fill="none" xmlns="http://www.w3.org/2000/svg">
<path d="M1 0C0.449219 0 0 0.449219 0 1C0 1.55078 0.449219 2 1 2C1.55078 2 2 1.55078 2 1C2 0.449219 1.55078 0 1 0ZM1 4C0.449219 4 0 4.44922 0 5C0 5.55078 0.449219 6 1 6C1.55078 6 2 5.55078 2 5C2 4.44922 1.55078 4 1 4ZM1 8C0.449219 8 0 8.44922 0 9C0 9.55078 0.449219 10 1 10C1.55078 10 2 9.55078 2 9C2 8.44922 1.55078 8 1 8Z" fill="black"/>
</svg>

<svg width="2" height="10" fill="none" xmlns="http://www.w3.org/2000/svg"><path d="M1 0C.45 0 0 .45 0 1s.45 1 1 1 1-.45 1-1-.45-1-1-1Zm0 4c-.55 0-1 .45-1 1s.45 1 1 1 1-.45 1-1-.45-1-1-1Zm0 4c-.55 0-1 .45-1 1s.45 1 1 1 1-.45 1-1-.45-1-1-1Z" fill="#000"/></svg>
